assets/icons/folder/new-filled.svg

<?xml version="1.0" encoding="UTF-8" standalone="no"?>
<svg
   viewBox="0 0 24 24"
   height="24"
   width="24"
   version="1.1"
   id="svg4"
   sodipodi:docname="new-filled.svg"
   inkscape:version="1.2 (1:1.2.1+202207142221+cd75a1ee6d)"
   xmlns:inkscape="http://www.inkscape.org/namespaces/inkscape"
   xmlns:sodipodi="http://sodipodi.sourceforge.net/DTD/sodipodi-0.dtd"
   xmlns="http://www.w3.org/2000/svg"
   xmlns:svg="http://www.w3.org/2000/svg">
  <defs
     id="defs8" />
  <sodipodi:namedview
     id="namedview6"
     pagecolor="#ffffff"
     bordercolor="#666666"
     borderopacity="1.0"
     inkscape:pageshadow="2"
     inkscape:pageopacity="0.0"
     inkscape:pagecheckerboard="0"
     showgrid="true"
     inkscape:zoom="28"
     inkscape:cx="9.9642856"
     inkscape:cy="15.321428"
     inkscape:window-width="1920"
     inkscape:window-height="1043"
     inkscape:window-x="0"
     inkscape:window-y="0"
     inkscape:window-maximized="1"
     inkscape:current-layer="svg4"
     inkscape:showpageshadow="2"
     inkscape:deskcolor="#d1d1d1">
    <inkscape:grid
       type="xygrid"
       id="grid821" />
    <inkscape:grid
       type="xygrid"
       id="grid823"
       dotted="true"
       spacingx="0.5"
       spacingy="0.5"
       empspacing="10" />
  </sodipodi:namedview>
  <path
     id="path454"
     style="color:#000000;fill:#808080;fill-opacity:1;stroke-linecap:round"
     d="M 5.4550781 3.0019531 C 4.4865002 3.0109331 3.7372573 3.0752235 3.1171875 3.4472656 C 2.7038076 3.6952937 2.3972493 4.1031746 2.2285156 4.609375 C 2.0597823 5.1155754 2 5.7241785 2 6.5019531 L 2 9.8945312 C 2.1634825 9.7632664 2.3396794 9.6485194 2.5273438 9.5546875 C 3.396598 9.1200599 4.4583364 9.0019531 5.5 9.0019531 L 10.292969 9.0019531 L 13.5 5.7949219 L 10.853516 3.1484375 A 0.5 0.5 0 0 0 10.761719 3.078125 A 0.5 0.5 0 0 0 10.730469 3.0605469 A 0.5 0.5 0 0 0 10.640625 3.0234375 A 0.5 0.5 0 0 0 10.621094 3.0175781 A 0.5 0.5 0 0 0 10.5 3.0019531 L 6.5 3.0019531 C 6.1250016 3.0019531 5.7779375 2.9989631 5.4550781 3.0019531 z M 14.707031 6.0019531 L 10.707031 10.001953 L 5.5 10.001953 C 4.5416696 10.001953 3.6033974 10.133847 2.9726562 10.449219 C 2.3419151 10.764588 2 11.168622 2 12.001953 L 2 12.503906 L 2 17.501953 C 2 18.279726 2.0585582 18.893265 2.25 19.410156 C 2.4414415 19.92705 2.8029646 20.337028 3.2773438 20.574219 C 4.2261013 21.048597 5.500008 21.001953 7.5 21.001953 L 14 21.001953 L 14 14 L 22 14 L 22 9.5019531 C 22 8.7241779 21.94022 8.1155755 21.771484 7.609375 C 21.602753 7.1031755 21.296194 6.6952937 20.882812 6.4472656 C 20.056054 5.9512098 18.999995 6.0019531 17.5 6.0019531 L 14.707031 6.0019531 z " />
  <path
     id="rect287"
     style="fill:#808080;stroke:none;stroke-width:2;stroke-linejoin:round;stroke-dasharray:3, 3"
     d="M 18 15 L 18 18 L 15 18 L 15 19 L 18 19 L 18 22 L 19 22 L 19 19 L 22 19 L 22 18 L 19 18 L 19 15 L 18 15 z " />
</svg>

<svg height="24" width="24" xmlns="http://www.w3.org/2000/svg"><path style="color:#000;fill:gray;fill-opacity:1;stroke-linecap:round" d="M5.455 3.002c-.968.009-1.718.073-2.338.445-.413.248-.72.656-.888 1.162C2.059 5.116 2 5.724 2 6.502v3.393c.163-.132.34-.246.527-.34.87-.435 1.931-.553 2.973-.553h4.793L13.5 5.795l-2.646-2.647a.5.5 0 0 0-.092-.07.5.5 0 0 0-.032-.017.5.5 0 0 0-.09-.038.5.5 0 0 0-.019-.005.5.5 0 0 0-.121-.016h-4c-.375 0-.722-.003-1.045 0zm9.252 3-4 4H5.5c-.958 0-1.897.132-2.527.447-.631.316-.973.72-.973 1.553v5.5c0 .778.059 1.391.25 1.908.191.517.553.927 1.027 1.164.95.475 2.223.428 4.223.428H14V14h8V9.502c0-.778-.06-1.386-.229-1.893-.168-.506-.475-.914-.888-1.162-.827-.496-1.883-.445-3.383-.445h-2.793z"/><path style="fill:gray;stroke:none;stroke-width:2;stroke-linejoin:round;stroke-dasharray:3,3" d="M18 15v3h-3v1h3v3h1v-3h3v-1h-3v-3h-1z"/></svg>
